dist/img/icons/Header/Logo.svg

<svg width="66" height="66" viewBox="0 0 66 66" fill="none" xmlns="http://www.w3.org/2000/svg">
<path d="M33 0.1875C14.8787 0.1875 0.1875 14.8787 0.1875 33C0.1875 51.1213 14.8787 65.8125 33 65.8125C51.1213 65.8125 65.8125 51.1213 65.8125 33C65.8125 14.8787 51.1213 0.1875 33 0.1875ZM36.4978 36.967V48.8681H29.8664V36.967L18.8863 17.1319H26.7022L33.2898 30.9536L39.5997 17.1319H47.1137L36.4978 36.967Z" fill="#721BE3"/>
</svg>

<svg width="66" height="66" fill="none" xmlns="http://www.w3.org/2000/svg"><path d="M33 .188C14.879.188.187 14.877.187 33 .188 51.121 14.88 65.813 33 65.813c18.121 0 32.813-14.692 32.813-32.813C65.813 14.879 51.12.187 33 .187Zm3.498 36.779v11.901h-6.632V36.967l-10.98-19.835h7.816l6.588 13.822 6.31-13.822h7.514L36.498 36.967Z" fill="#721BE3"/></svg>
